X:1
T:O della mia salute
T:O della mia salute
T:Giovanni Pietro Biandra
T:Source : Madrigaletti a 1, 2 e 3 voci. Libro primo---Venezia---B.Magni (Gardano)---1626. Editor : André Vierendeels (12/03/15).
T:Notes : Original clefs : C1 C4n F4 Figures in BC are notated in original print Editorial accidentals above the staff
C:Giovanni Pietro Biandra
%%score [ 1 2 ] 3
L:1/8
Q:1/4=120
M:4/4
K:C
V:1 treble nm="Canto" snm="C"
V:2 treble-8 nm="Tenor" snm="T"
V:3 bass nm="BC" snm="BC"
V:1
 z4 c4- | c2 BA BG A2- | A2 d4 cB | c2 BA BA A2- | A2 ^G2 A4 | A2 AA A2 A2 | _B2 A2 BA Bc | A8 | %8
w: O|_ del- la mia sa- lu-|* te'u- ni- ca|spe- * * * * *|* * ne|ren- di- m'il cor con-|tri- * * * * *|to,|
 ^c2 cc c2 c2 | d2 ^c2 dc de | ^c8 | z2 dc B2 BB | c2 c_B A2 AA | _B3 A G4 | F8 | z2 dA d2 dc | %16
w: ren- di- m'il cor con-|tri- * * * * *|to|e fe- ri- sci fe-|ri- to'e fe- ri- sce fe-|ri- * *|to,|si che spar- ga'il mio|
 B2 BB c4 | ^c4 d4 | ^d4 e4- | eddc cB B2 | A8 | z8 | z8 | z8 | z8 | z2 ec e2 ed | ^c2 cc d4 | %27
w: co- re a- ma-|* ro|_ pian-|* t'e a- mo- ro- so'ar- do-|re,|||||si che spar- ga'il mio|co- re a- ma-|
 ^d4 e4- | eddc cB cA | _B3 A AG AB/c/ | d6 ^c2 | d8 | z2 GG ^G2 GG | AEAG ^F2 F2 | z ddc B2 B2 | %35
w: ro pian-|* t'e a- mo- ro- * * *|s'ar- * do- * * * *||re,|e pian- gen- d'il mio|ma- le not- t'e gior- no,|ne la tua gra- tia,|
 z eed c3 c | B4 A4 | z8 | z8 | z8 | z8 | z8 | z2 GG ^G2 GG | AFAG E2 E2 | z4 z ddc | B2 B2 z eed | %46
w: ne la tua gra- tia|tor- ni,||||||ne pian- gen- d'il suo|ma- le not- t'e gior- ni,|ne la tua|gra- tia, ne la tua|
 ^c2 c2 dc BA |"^#" BA GF GE FG | A6 ^G2 | A8 |] %50
w: gra- tia tor- * * *|||ni.|
V:2
 z4 A4- | A2 GF GE FG | A4 e4- | e2 dc d2 c2 | B4 A4 | z8 | z8 | z8 | A2 AA A2 A2 | _B2 A2 BA Bc | %10
w: O|_ del- la mia sa- lu- *|* te'u-|* ni- ca spe- *|* ne||||ren- de- m'il cor con-|tri- * * * * *|
 A8 | z4 z2 GF | E2 EE F2 FE | D2 DF F2 E2 | F8 | z8 | z8 | z8 | z8 | z8 | z2 AE A2 AG | %21
w: to|e fe-|ri- sci fe- ri- to'e fe-|ri- sce fe- ri- *|to,||||||si che spar- ga'il mio|
 ^F2 FF G4 | ^G4 A4 | _B4 =B4- | BAAG G^F F2 | E8 | z2 AE A2 AG | ^F2 FF G4- | G4 A4 | AGGF FE FG | %30
w: co- re a- ma-|ro pian-|* to'e|_ a- mo- ro- so ar- do-|re,|Si che spar- ga'il mio|co- re a- ma-|* ro|pian- t'e a- mo- ro- * * *|
 F3 E E4 | D8 | z8 | z8 | z8 | z8 | z8 | z2 cc ^c2 cc | dAdc B2 B2 | z eed c2 c2 | z ffe d3 c | %41
w: * so'ar- do-|re,||||||e pian- gen- d'il suo|ma- le not- t'e gior- ni-|ne la gra- ti- a,|ne la tua gra- tia|
 B4 A4 | z8 | z2 cc ^c2 cc | dAdc B2 B2 | z GGF E2 E2 | z AAG ^F2 F2 |"^#" GF ED EG AB | cB BA B4 | %49
w: tor- ni,||e pian- gen- d'il suo|ma- le not- t'e gior- ni,|ne la tua gra- tia,|ne la tua gra- tia|tor- * * * * * * *||
 A8 |] %50
w: ni.|
V:3
 A,,8 | E,6 D,2 | D,4 A,,4 | A,,4 G,,2 A,,2 | E,4 A,,4 | D,8 |"^b" G,,8 | D,8 | A,,8 |"^b" G,,8 | %10
 A,,8 | D,4 G,,4 | C,4 F,,4 | _B,,4 C,4 | F,,8 | D,8 | G,,4 C,2 B,,2 | A,,4 D,2 C,2 | %18
 B,,4 ^C,2 D,2 | E,8 | A,,8 | D,4 B,,4 | E,4 A,,4 |"^b" G,,2 F,,2 E,,4 | B,,8 | E,8 | A,,4 ^F,,4 | %27
 B,,4 E,4 | B,,4 A,,4 |"^5b6" D,8 |"^-natural" D,2 G,,2 A,,4 | D,8 | G,3 F, E,3 D, | ^C,4 D,4 | %34
"^-natural" B,,4 E,4 | C,6 D,2 | E,4 A,,3 G,, |"^#" F,,4 A,,4 | D,4 G,,4 | C,4 F,4 | D,4 D,4 | %41
 E,4 A,,4 |"^#""^-natural" C,4 E,4 |"^#" F,4 A,4 |"^#" D,4 G,4 | G,,4 C,4 | A,,4 D,4 | G,,4 C,4 | %48
 A,,4 E,4 | A,,8 |] %50

